svgs/sharp-solid/manat-sign.svg

<svg xmlns="http://www.w3.org/2000/svg" viewBox="0 0 384 512"><!--! Font Awesome Pro 6.6.0 by @fontawesome - https://fontawesome.com License - https://fontawesome.com/license (Commercial License) Copyright 2024 Fonticons, Inc. --><path d="M224 32l-64 0 0 66.7C69.2 113.9 0 192.9 0 288L0 448l0 32 64 0 0-32 0-160c0-59.6 40.8-109.8 96-124l0 316 64 0 0-316c55.2 14.2 96 64.3 96 124l0 160 0 32 64 0 0-32 0-160c0-95.1-69.2-174.1-160-189.3L224 32z"/></svg>

<svg xmlns="http://www.w3.org/2000/svg" viewBox="0 0 384 512"><!--! Font Awesome Pro 6.4.0 by @fontawesome - https://fontawesome.com License - https://fontawesome.com/license (Commercial License) Copyright 2023 Fonticons, Inc. --><path d="M224 32H160V98.7C69.2 113.9 0 192.9 0 288V448v32H64V448 288c0-59.6 40.8-109.8 96-124V480h64V164c55.2 14.2 96 64.3 96 124V448v32h64V448 288c0-95.1-69.2-174.1-160-189.3V32z"/></svg>
